X:1
T:Trabzon, 87.87.87
T:Trabzon, 87.87.87
T:L. B. Shook, 1883
T:Public Domain Courtesy of the Cyber Hymnal™
C:L. B. Shook, 1883
Z:Public Domain
Z:Courtesy of the Cyber Hymnal™
%%score ( 1 2 ) ( 3 4 )
L:1/8
Q:1/4=83
M:2/4
K:G
V:1 treble 
V:2 treble 
V:3 bass 
V:4 bass 
V:1
 [B,G][B,G] [B,G][B,D] | [CE][B,D] [B,D][DG] | [EG][EG] [DF][DA] | [DE][DF] [DG]2 | %4
 [B,G][B,G] [B,G][B,D] | [CE][B,D] [B,D][DG] | [DG][DB] [DA][DF][^CG][CE] D2 | [Fd]2 [GB]2 | %8
 [DB]2 [DG]2 | [EG]2 (GA) | [EG]2 [CE]2 | [B,D]2 [DG]2 | [GB]2 [DG]2 | [DA]2 (BA) | [DG]4 |] x4 |] %16
V:2
 x4 | x4 | x4 | x4 | x4 | x4 | x6 D2 | x4 | x4 | x2 E2 | x4 | x4 | x4 | x2 D2 | x4 |] x4 |] %16
V:3
 [G,,G,][G,,G,] [G,,G,][G,,G,] | [G,,G,][G,,G,] [G,,G,][G,,B,] | [C,C][C,C] [D,A,][D,C] | %3
 [D,C][D,C] [G,,B,]2 | [G,,G,][G,,G,] [G,,G,][G,,G,] | [G,,G,][G,,G,] [G,,G,][G,,B,] | %6
 [G,,B,][G,,G,] [A,,F,][A,,A,] x4 | [A,,A,][A,,G,] [D,F,]2 | [D,A,]2 G,2 | G,2 [G,B,]2 | %10
 [C,C]2 [C,C]2 | [C,C]2 [C,G,]2 | [D,G,]2 [D,B,]2 | [D,D]2 [D,B,]2 | [D,C]2 [D,C]2 |] [G,,B,]4 |] %16
V:4
 x4 | x4 | x4 | x4 | x4 | x4 | x8 | x4 | x2 G,2 | G,2 x2 | x4 | x4 | x4 | x4 | x4 |] x4 |] %16

